!!!OTL: HINAUS IN DAS LAND UND WEITER
!!!ARE: Europa, Mitteleuropa, Deutschland
!!!SCT: F0064A
!!!YEM: Copyright 1995, estate of Helmut Schaffrath.
**kern
*ICvox
*Ivox
*M4/4
*k[b-e-a-d-g-]
*b-:
{8f
=1
4b-
8b-
8b-
4dd-
8cc
8b-
=2
4.ff
8cc
4cc
8r}
{8cc
=3
4.dd-
8dd-
4.ee-
8ee-
=4
2.ff
8r}
{8ff
=5
4.ff
8b-
4b-
8cc
8dd
=6
4ee-
4ee-
4.r}
{8ee-
=7
4ee-
8f
8f
4f
8g
8a
=8
2.b-
8r}
{8f
=9
4ff
8b-
8b-
4aa-
8gg-
8ff
=10
4gg-
4gg-
4.r}
{8gg-
=11
4ff
8ff
8ff
4.ff
8a
=12
4b-
2bb-
8aa-}
{8gg-
=13
4ff
8ff
8ff
4.ff
8a
=14
2.b-
8r}
==
!!!AGN: Liebe, Schmerz, Schaefer - Lied
!! Strophenvariante zu F0064
!!!ONB: ESAC (Essen Associative Code) Database: FINK
!!!AMT: simple quadruple
!!!AIN: vox
!!!EED: Helmut Schaffrath
!!!EEV: 1.0
*-
